icons/1_Primary/BeyondTrust.svg

<svg xmlns="http://www.w3.org/2000/svg" width="1024" height="1024" fill="none">
   <g clip-path="url(#a)">
      <path fill="#F8C18C" d="M512 1024c282.77 0 512-229.23 512-512S794.77 0 512 0 0 229.23 0 512s229.23 512 512 512Z"/>
      <path fill="#fff" d="m700 438.9-45.4-45.4c-.4-.4-.9-.5-1.3-.2-.5.2-.7.6-.7 1.1v318.8c0 .5.3.9.7 1.1.2.1.3.1.5.1.3 0 .6-.2.9-.4l45.4-45.4c1.7-1.7 3.1-5.1 3.1-7.5V446.5c-.1-2.4-1.6-6-3.2-7.6Zm-242.6-72.3c-1.3 0-2.5-1.1-2.5-2.5V230.2c0-.5-.3-.9-.7-1.1-.5-.2-1-.1-1.3.2l-45.4 45.4c-1.7 1.7-3.2 5.2-3.2 7.5V416c0 .7.6 1.3 1.3 1.3h160.7c1.3 0 2.5 1.1 2.5 2.5v24c0 3.5-2.8 6.3-6.3 6.3H405.6c-.3 0-.6.2-.9.4-.2.2-.4.5-.4.9V622c0 19.6 16 35.6 35.6 35.6h122.5c3.5 0 6.3 2.8 6.3 6.3v24c0 1.3-1.1 2.5-2.5 2.5H439.9c-37.7 0-68.4-30.7-68.4-68.4V313.6c0-.5-.3-.9-.7-1.1-.5-.2-1-.1-1.3.2L324 358.2c-1.7 1.7-3.1 5.2-3.1 7.5v271.1c0 57.5 46.7 104.3 104.2 104.3h193.2c.7 0 1.3-.6 1.3-1.3l.2-371.8c0-.7-.7-1.3-1.3-1.3l-161.1-.1ZM568.8 507v93.6c0 3.5-2.8 6.3-6.3 6.3H457.7c-1.3 0-2.5-1.1-2.5-2.5V507c0-3.5 2.8-6.3 6.3-6.3h100.9c3.6-.1 6.4 2.8 6.4 6.3Z"/>
   </g>
   <defs>
      <clipPath id="a">
         <path fill="#fff" d="M0 0h1024v1024H0z"/>
      </clipPath>
   </defs>
</svg>

<svg width="1024" height="1024" viewBox="0 0 1024 1024" fill="none" xmlns="http://www.w3.org/2000/svg">
<g clip-path="url(#clip0_2_1590)">
<path d="M512 1024C794.77 1024 1024 794.77 1024 512C1024 229.23 794.77 0 512 0C229.23 0 0 229.23 0 512C0 794.77 229.23 1024 512 1024Z" fill="#F8C18C"/>
<path d="M700 438.9L654.6 393.5C654.2 393.1 653.7 393 653.3 393.3C652.8 393.5 652.6 393.9 652.6 394.4V713.2C652.6 713.7 652.9 714.1 653.3 714.3C653.5 714.4 653.6 714.4 653.8 714.4C654.1 714.4 654.4 714.2 654.7 714L700.1 668.6C701.8 666.9 703.2 663.5 703.2 661.1V446.5C703.1 444.1 701.6 440.5 700 438.9ZM457.4 366.6C456.1 366.6 454.9 365.5 454.9 364.1V230.2C454.9 229.7 454.6 229.3 454.2 229.1C453.7 228.9 453.2 229 452.9 229.3L407.5 274.7C405.8 276.4 404.3 279.9 404.3 282.2V416C404.3 416.7 404.9 417.3 405.6 417.3H566.3C567.6 417.3 568.8 418.4 568.8 419.8V443.8C568.8 447.3 566 450.1 562.5 450.1H405.6C405.3 450.1 405 450.3 404.7 450.5C404.5 450.7 404.3 451 404.3 451.4V622C404.3 641.6 420.3 657.6 439.9 657.6H562.4C565.9 657.6 568.7 660.4 568.7 663.9V687.9C568.7 689.2 567.6 690.4 566.2 690.4H439.9C402.2 690.4 371.5 659.7 371.5 622V313.6C371.5 313.1 371.2 312.7 370.8 312.5C370.3 312.3 369.8 312.4 369.5 312.7L324 358.2C322.3 359.9 320.9 363.4 320.9 365.7V636.8C320.9 694.3 367.6 741.1 425.1 741.1H618.3C619 741.1 619.6 740.5 619.6 739.8L619.8 368C619.8 367.3 619.1 366.7 618.5 366.7L457.4 366.6ZM568.8 507V600.6C568.8 604.1 566 606.9 562.5 606.9H457.7C456.4 606.9 455.2 605.8 455.2 604.4V507C455.2 503.5 458 500.7 461.5 500.7H562.4C566 500.6 568.8 503.5 568.8 507Z" fill="white"/>
</g>
<defs>
<clipPath id="clip0_2_1590">
<rect width="1024" height="1024" fill="white"/>
</clipPath>
</defs>
</svg>
